favicon.svg

<svg xmlns="http://www.w3.org/2000/svg" width="32" height="32"><path fill="#1e3d3b" d="M0 0h32v32H0z"/><path fill="#a8d8d4" d="m20 8-4 8 4 8h-2l-3-6-3 6h-2l4-8-4-8h2l3 6 3-6Z"/></svg>

<svg xmlns="http://www.w3.org/2000/svg" width="32" height="32">
  <path fill="#1e3d3b" d="M0 0h32v32H0z"/>
  <path fill="#a8d8d4" d="M16 16 L20 24 L18 24 L15 18 L12 24 L10 24 L14 16 L10 8 L12 8 L15 14 Z"/>
</svg>
